build/svg/extensions/res/update/ui/onlineupdate_26.svg

<?xml version="1.0" encoding="UTF-8" standalone="no"?>
<svg
   xmlns:dc="http://purl.org/dc/elements/1.1/"
   xmlns:cc="http://creativecommons.org/ns#"
   xmlns:rdf="http://www.w3.org/1999/02/22-rdf-syntax-ns#"
   xmlns:svg="http://www.w3.org/2000/svg"
   xmlns="http://www.w3.org/2000/svg"
   xmlns:sodipodi="http://sodipodi.sourceforge.net/DTD/sodipodi-0.dtd"
   xmlns:inkscape="http://www.inkscape.org/namespaces/inkscape"
   viewBox="0 0 24 24"
   version="1.1"
   id="svg4"
   sodipodi:docname="onlineupdate_26.svg"
   inkscape:export-filename="/home/jupiter007/Libreoffice yaru theme fullcolor/build/extensions/res/update/ui/onlineupdate_26.png"
   inkscape:export-xdpi="96"
   inkscape:export-ydpi="96"
   inkscape:version="0.92.5 (2060ec1f9f, 2020-04-08)">
  <metadata
     id="metadata10">
    <rdf:RDF>
      <cc:Work
         rdf:about="">
        <dc:format>image/svg+xml</dc:format>
        <dc:type
           rdf:resource="http://purl.org/dc/dcmitype/StillImage" />
        <dc:title></dc:title>
      </cc:Work>
    </rdf:RDF>
  </metadata>
  <defs
     id="defs8" />
  <sodipodi:namedview
     pagecolor="#ffffff"
     bordercolor="#666666"
     borderopacity="1"
     objecttolerance="10"
     gridtolerance="10"
     guidetolerance="10"
     inkscape:pageopacity="0"
     inkscape:pageshadow="2"
     inkscape:window-width="1920"
     inkscape:window-height="1011"
     id="namedview6"
     showgrid="true"
     inkscape:zoom="27.812867"
     inkscape:cx="3.1696726"
     inkscape:cy="13.252202"
     inkscape:window-x="1920"
     inkscape:window-y="32"
     inkscape:window-maximized="1"
     inkscape:current-layer="svg4"
     inkscape:snap-center="true">
    <inkscape:grid
       type="xygrid"
       id="grid829"
       spacingx="0.5"
       spacingy="0.5"
       dotted="true" />
    <inkscape:grid
       type="xygrid"
       id="grid946" />
  </sodipodi:namedview>
  <circle
     style="opacity:1;fill:#4d4d4d;fill-opacity:1;fill-rule:evenodd;stroke:none;stroke-width:2;stroke-linecap:round;stroke-linejoin:round;stroke-miterlimit:4;stroke-dasharray:none;stroke-opacity:1"
     id="path831"
     cx="12"
     cy="12"
     r="10" />
  <circle
     style="opacity:0.1;fill:#babeb4;fill-opacity:1;fill-rule:evenodd;stroke:none;stroke-width:2;stroke-linecap:round;stroke-linejoin:round;stroke-miterlimit:4;stroke-dasharray:none;stroke-opacity:1"
     id="path957"
     cx="12"
     cy="12"
     r="7" />
  <path
     style="opacity:1;fill:#ffffff;fill-opacity:1;fill-rule:evenodd;stroke:none;stroke-width:2;stroke-linecap:round;stroke-linejoin:round;stroke-miterlimit:4;stroke-dasharray:none;stroke-opacity:1"
     d="M 12,2 A 10,10 0 0 0 7,3.3496094 V 5 h 5 z M 5,4.8886719 A 10,10 0 0 0 2,12 10,10 0 0 0 12,22 V 19 A 7,7 0 0 1 5,12 7,7 0 0 1 7.1113281,7 H 6 5 Z"
     id="path833"
     inkscape:connector-curvature="0"
     inkscape:transform-center-x="5" />
  <path
     inkscape:transform-center-x="-5"
     inkscape:connector-curvature="0"
     id="path932"
     d="m 12,22 a 10,10 0 0 0 5,-1.349609 V 19 h -5 z m 7,-2.888672 A 10,10 0 0 0 22,12 10,10 0 0 0 12,2 v 3 a 7,7 0 0 1 7,7 7,7 0 0 1 -2.111328,5 H 18 19 Z"
     style="opacity:1;fill:#ffffff;fill-opacity:1;fill-rule:evenodd;stroke:none;stroke-width:2;stroke-linecap:round;stroke-linejoin:round;stroke-miterlimit:4;stroke-dasharray:none;stroke-opacity:1" />
  <path
     style="opacity:0.2;fill:#000000;fill-opacity:1;fill-rule:evenodd;stroke:none;stroke-width:2;stroke-linecap:round;stroke-linejoin:round;stroke-miterlimit:4;stroke-dasharray:none;stroke-opacity:1"
     d="M 12 2 A 10 10 0 0 0 2 12 A 10 10 0 0 0 12 22 A 10 10 0 0 0 22 12 A 10 10 0 0 0 12 2 z M 12 3 A 9 9 0 0 1 21 12 A 9 9 0 0 1 12 21 A 9 9 0 0 1 3 12 A 9 9 0 0 1 12 3 z "
     id="path952" />
  <path
     style="fill:#ececec;fill-opacity:1;stroke:none;stroke-width:1px;stroke-linecap:butt;stroke-linejoin:miter;stroke-opacity:1"
     d="m 11,6 h 2 l 4,10 H 15 L 12,8 9,16 H 7 Z"
     id="path948"
     inkscape:connector-curvature="0"
     sodipodi:nodetypes="cccccccc" />
  <path
     style="fill:#4571df;stroke:none;stroke-width:1px;stroke-linecap:butt;stroke-linejoin:miter;stroke-opacity:1;fill-opacity:1;opacity:0.1"
     d="m 12,8 1,-2 c 0,0 4,10 4,10 h -2 z"
     id="path950"
     inkscape:connector-curvature="0" />
  <path
     style="color:#000000;display:inline;overflow:visible;visibility:visible;opacity:1;fill:#f8f8f8;fill-opacity:1;fill-rule:nonzero;stroke:none;stroke-width:2;stroke-linecap:butt;stroke-linejoin:miter;stroke-miterlimit:4;stroke-dasharray:2.00000001, 2.00000001;stroke-dashoffset:0;stroke-opacity:1;marker:none;enable-background:accumulate"
     clip-path="none"
     d="m 7.5,11 h 9 c 0.831,0 1.5,0.669 1.5,1.5 0,0.831 -0.669,1.5 -1.5,1.5 h -9 C 6.669,14 6,13.331 6,12.5 6,11.669 6.669,11 7.5,11 Z"
     id="rect934"
     inkscape:connector-curvature="0"
     sodipodi:nodetypes="sssssss" />
  <path
     clip-path="none"
     inkscape:connector-curvature="0"
     id="path936"
     d="m 7.4998884,11.999726 c -0.277,0 -0.5,0.223 -0.5,0.5 0,0.277 0.223,0.5 0.5,0.5 H 10.43359 13.5 16.566362 c 0.24027,0 0.43359,-0.19332 0.43359,-0.43359 v -0.13282 c 0,-0.24027 -0.19332,-0.43359 -0.43359,-0.43359 H 13.5 10.43359 Z"
     style="color:#000000;display:inline;overflow:visible;visibility:visible;opacity:0.2;fill:#1f1f1f;fill-opacity:1;fill-rule:nonzero;stroke:none;stroke-width:1.99999988;stroke-linecap:butt;stroke-linejoin:miter;stroke-miterlimit:4;stroke-dasharray:2.00000001, 2.00000001;stroke-dashoffset:0;stroke-opacity:1;marker:none;enable-background:accumulate"
     sodipodi:nodetypes="sssccssssccs" />
  <path
     style="color:#000000;display:inline;overflow:visible;visibility:visible;opacity:1;fill:#924d8b;fill-opacity:1;fill-rule:nonzero;stroke:none;stroke-width:1.99999988;stroke-linecap:butt;stroke-linejoin:miter;stroke-miterlimit:4;stroke-dasharray:2.00000001, 2.00000001;stroke-dashoffset:0;stroke-opacity:1;marker:none;enable-background:accumulate"
     clip-path="none"
     d="M 13.50002,12 H 7.4999084 c -0.277,0 -0.5,0.223001 -0.5,0.5 0,0.276999 0.223,0.5 0.5,0.5 H 13.50002 c 0.277,0 0.5,-0.223001 0.5,-0.5 0,-0.276999 -0.223,-0.5 -0.5,-0.5 z"
     id="rect938"
     inkscape:connector-curvature="0"
     sodipodi:nodetypes="sssssss" />
</svg>

<svg xmlns="http://www.w3.org/2000/svg" viewBox="0 0 24 24"><circle cx="12" cy="12" r="10" fill="#4d4d4d" fill-rule="evenodd"/><circle cx="12" cy="12" r="7" opacity=".1" fill="#babeb4" fill-rule="evenodd"/><path d="M12 2a10 10 0 00-5 1.35V5h5zM5 4.889A10 10 0 002 12a10 10 0 0010 10v-3a7 7 0 01-7-7 7 7 0 012.111-5H5zM12 22a10 10 0 005-1.35V19h-5zm7-2.889A10 10 0 0022 12 10 10 0 0012 2v3a7 7 0 017 7 7 7 0 01-2.111 5H19z" fill="#fff" fill-rule="evenodd"/><path d="M12 2A10 10 0 002 12a10 10 0 0010 10 10 10 0 0010-10A10 10 0 0012 2zm0 1a9 9 0 019 9 9 9 0 01-9 9 9 9 0 01-9-9 9 9 0 019-9z" opacity=".2" fill-rule="evenodd"/><path d="M11 6h2l4 10h-2l-3-8-3 8H7z" fill="#ececec"/><path d="M12 8l1-2 4 10h-2z" fill="#4571df" opacity=".1"/><path style="marker:none" d="M7.5 11h9c.831 0 1.5.669 1.5 1.5s-.669 1.5-1.5 1.5h-9c-.831 0-1.5-.669-1.5-1.5S6.669 11 7.5 11z" color="#000" overflow="visible" fill="#f8f8f8"/><path d="M7.5 12a.499.499 0 100 1H16.566c.24 0 .434-.194.434-.434v-.133a.433.433 0 00-.434-.433h-6.132z" style="marker:none" color="#000" overflow="visible" opacity=".2" fill="#1f1f1f"/><path style="marker:none" d="M13.5 12h-6a.499.499 0 100 1h6a.499.499 0 100-1z" color="#000" overflow="visible" fill="#924d8b"/></svg>
